!!!OTL: Salazu renmin bashenfan
!!!ARE: Qinghai Xiunhua
!! Ethnic Group: Sala
!! I, 216 (2)
!!!SCT: S4647
!!!YEM: Copyright 1995, estate of Helmut Schaffrath.
**kern
*ICvox
*Ivox
*M2/4
*k[b-e-a-]
*E-:
{8cc
8cc
8cc
8ee-
=1
8cc
8b-
16b-
16g
16b-
16cc
=2
8b-
16b-
16g
8f
8f
=3
8f
8b-
16b-
16g
16b-
16cc}
=4
{8.cc
16cc
8cc
8b-
=5
8b-
8g
16b-
16g
16b-
16cc
=6
8b-
16b-
16g
8f
8f
=7
4f
4r}
=8
{8c
16c
16c
8c
8e-
=9
8f
8f
16f
16e-
16f
16g
=10
8g
8g
8g
8b-
=11
8g
8g
16g
16f
16g
16b-}
=12
{8f
8f
8f
8b-
=13
8cc
8b-
16b-
16g
16b-
16cc
=14
8b-
16b-
16g
8f
8f
=15
2f}
==
!!!ONB: ESAC (Essen Associative Code) Database: SENGANSU
!!!AMT: simple duple
!!!AIN: vox
!!!EED: Helmut Schaffrath
!!!EEV: 1.0
*-
